icon/lg/shields.svg

<svg width="256" height="75" xmlns="http://www.w3.org/2000/svg" preserveAspectRatio="xMidYMid"><path d="M247.222 1.561A10.274 10.274 0 0 0 241.778 0H15.515C6.96 0 0 6.96 0 15.515v43.96C0 68.03 6.96 74.99 15.515 74.99h159.694c.22.009.441.021.661.021.149 0 .294-.017.442-.021h65.466c2 0 3.861-.577 5.443-1.56 5.186-2.514 8.779-7.816 8.779-13.955v-43.96c0-6.139-3.593-11.44-8.778-13.954ZM10.343 59.475v-43.96a5.178 5.178 0 0 1 5.172-5.172H181.01v49.556c-.213 2.721-2.519 4.762-5.221 4.747H15.515a5.177 5.177 0 0 1-5.172-5.171Z"/><path d="M47.071 45.152c0 2.599-.944 4.626-2.829 6.08-1.885 1.455-4.444 2.182-7.676 2.182-3.502 0-6.196-.451-8.081-1.353v-3.314c1.212.513 2.531.917 3.959 1.213 1.428.296 2.842.444 4.243.444 2.289 0 4.013-.434 5.172-1.303 1.157-.869 1.737-2.077 1.737-3.626 0-1.023-.206-1.861-.616-2.515-.411-.653-1.098-1.255-2.061-1.808-.963-.552-2.428-1.179-4.394-1.879-2.747-.983-4.711-2.148-5.889-3.495-1.178-1.346-1.767-3.104-1.767-5.273 0-2.275.854-4.087 2.565-5.434 1.711-1.346 3.973-2.021 6.788-2.021 2.936 0 5.637.54 8.101 1.617l-1.071 2.99c-2.438-1.023-4.808-1.536-7.111-1.536-1.818 0-3.239.392-4.262 1.172-1.024.782-1.536 1.866-1.536 3.253 0 1.023.189 1.862.566 2.515.377.654 1.013 1.252 1.909 1.798.895.545 2.266 1.149 4.111 1.808 3.097 1.104 5.229 2.29 6.394 3.555 1.165 1.267 1.748 2.909 1.748 4.93M67.758 53.01V38.687c0-1.804-.411-3.152-1.233-4.041-.822-.888-2.108-1.333-3.858-1.333-2.331 0-4.031.634-5.101 1.899-1.071 1.267-1.606 3.341-1.606 6.222V53.01h-3.354V21.576h3.354v9.515c0 1.145-.055 2.095-.162 2.848H56c.66-1.063 1.599-1.901 2.818-2.515 1.219-.612 2.609-.919 4.172-.919 2.707 0 4.737.644 6.091 1.929 1.353 1.287 2.03 3.331 2.03 6.132V53.01h-3.353M77.717 24.869c0-.768.188-1.33.566-1.687.377-.356.848-.536 1.414-.536.538 0 1.003.182 1.394.546.39.364.586.923.586 1.677 0 .755-.196 1.317-.586 1.687a1.955 1.955 0 0 1-1.394.555c-.566 0-1.037-.184-1.414-.555-.378-.37-.566-.932-.566-1.687Zm.283 6h3.354V53.01H78V30.869ZM97.818 53.414c-3.272 0-5.855-.996-7.747-2.99-1.893-1.992-2.839-4.76-2.839-8.303 0-3.568.879-6.404 2.637-8.505 1.757-2.101 4.117-3.151 7.081-3.151 2.774 0 4.969.912 6.585 2.737 1.616 1.826 2.425 4.232 2.425 7.222v2.122H90.707c.067 2.599.724 4.573 1.97 5.919 1.245 1.347 3 2.02 5.262 2.02 2.384 0 4.741-.498 7.071-1.495v2.99c-1.185.512-2.307.879-3.364 1.101-1.057.222-2.333.333-3.828.333Zm-.909-20.141c-1.778 0-3.196.579-4.252 1.737-1.058 1.159-1.681 2.761-1.869 4.808h11.576c0-2.114-.472-3.733-1.415-4.858-.943-1.124-2.289-1.687-4.04-1.687ZM111.677 21.576h3.353V53.01h-3.353V21.576ZM137.212 50.04h-.182c-1.549 2.25-3.866 3.374-6.949 3.374-2.896 0-5.149-.99-6.758-2.97-1.61-1.979-2.414-4.794-2.414-8.444 0-3.649.808-6.485 2.424-8.505 1.617-2.02 3.865-3.03 6.748-3.03 3.002 0 5.305 1.091 6.909 3.272h.262l-.141-1.596-.081-1.555v-9.01h3.354V53.01h-2.727l-.445-2.97Zm-6.707.566c2.289 0 3.949-.622 4.98-1.869 1.03-1.245 1.545-3.255 1.545-6.03V42c0-3.138-.522-5.376-1.565-6.717-1.044-1.34-2.711-2.01-5-2.01-1.967 0-3.472.765-4.516 2.293-1.044 1.529-1.565 3.686-1.565 6.474 0 2.829.518 4.964 1.555 6.404 1.037 1.442 2.559 2.162 4.566 2.162ZM161.778 46.97c0 2.06-.768 3.65-2.303 4.767-1.536 1.119-3.691 1.677-6.465 1.677-2.937 0-5.226-.465-6.869-1.394v-3.111a16.57 16.57 0 0 0 3.425 1.273 14.28 14.28 0 0 0 3.525.464c1.75 0 3.097-.279 4.04-.838.942-.558 1.415-1.41 1.415-2.556 0-.861-.374-1.598-1.122-2.212-.747-.612-2.206-1.335-4.373-2.171-2.061-.768-3.526-1.437-4.394-2.01-.869-.572-1.516-1.223-1.94-1.95-.424-.727-.636-1.596-.636-2.606 0-1.804.733-3.228 2.202-4.273 1.467-1.043 3.481-1.565 6.04-1.565 2.384 0 4.714.484 6.99 1.454l-1.192 2.727c-2.222-.915-4.236-1.373-6.04-1.373-1.59 0-2.788.25-3.596.747-.808.499-1.212 1.186-1.212 2.061 0 .593.151 1.098.454 1.515.303.418.791.816 1.465 1.192.673.377 1.966.923 3.879 1.636 2.626.957 4.4 1.919 5.323 2.889.922.97 1.384 2.19 1.384 3.657"/><path d="M193.737 23.475H200V53.01h-6.263V23.475ZM234.242 38.202c0 4.889-1.212 8.647-3.636 11.273-2.424 2.626-5.899 3.939-10.424 3.939-4.525 0-8-1.313-10.424-3.939-2.425-2.626-3.637-6.397-3.637-11.313s1.215-8.67 3.647-11.263c2.43-2.592 5.915-3.889 10.454-3.889 4.538 0 8.01 1.307 10.414 3.919 2.404 2.614 3.606 6.372 3.606 11.273Zm-21.555 0c0 3.301.626 5.785 1.879 7.455 1.252 1.67 3.123 2.505 5.616 2.505 4.996 0 7.495-3.32 7.495-9.96 0-6.653-2.485-9.98-7.455-9.98-2.492 0-4.371.839-5.636 2.515-1.267 1.677-1.899 4.166-1.899 7.465Z" fill="#FFF"/></svg>

<?xml version="1.0" encoding="UTF-8" standalone="no"?>
<svg viewBox="0 0 256 75" version="1.1" xmlns="http://www.w3.org/2000/svg" xmlns:xlink="http://www.w3.org/1999/xlink" preserveAspectRatio="xMidYMid" height="1em" width="1em">
  <g>
    <path d="M247.222,1.561 C245.639,0.577 243.778,0 241.778,0 L15.515,0 C6.96,0 0,6.96 0,15.515 L0,59.475 C0,68.03 6.96,74.99 15.515,74.99 L175.209,74.99 C175.429,74.999 175.65,75.011 175.87,75.011 C176.019,75.011 176.164,74.994 176.312,74.99 L241.778,74.99 C243.778,74.99 245.639,74.413 247.221,73.43 C252.407,70.916 256,65.614 256,59.475 L256,15.515 C256,9.376 252.407,4.075 247.222,1.561 L247.222,1.561 Z M10.343,59.475 L10.343,15.515 C10.343,12.664 12.663,10.343 15.515,10.343 L181.01,10.343 L181.01,59.899 C180.797,62.62 178.491,64.661 175.789,64.646 L15.515,64.646 C12.663,64.646 10.343,62.327 10.343,59.475 L10.343,59.475 Z" fill="#000000"/>
    <path d="M47.071,45.152 C47.071,47.751 46.127,49.778 44.242,51.232 C42.357,52.687 39.798,53.414 36.566,53.414 C33.064,53.414 30.37,52.963 28.485,52.061 L28.485,48.747 C29.697,49.26 31.016,49.664 32.444,49.96 C33.872,50.256 35.286,50.404 36.687,50.404 C38.976,50.404 40.7,49.97 41.859,49.101 C43.016,48.232 43.596,47.024 43.596,45.475 C43.596,44.452 43.39,43.614 42.98,42.96 C42.569,42.307 41.882,41.705 40.919,41.152 C39.956,40.6 38.491,39.973 36.525,39.273 C33.778,38.29 31.814,37.125 30.636,35.778 C29.458,34.432 28.869,32.674 28.869,30.505 C28.869,28.23 29.723,26.418 31.434,25.071 C33.145,23.725 35.407,23.05 38.222,23.05 C41.158,23.05 43.859,23.59 46.323,24.667 L45.252,27.657 C42.814,26.634 40.444,26.121 38.141,26.121 C36.323,26.121 34.902,26.513 33.879,27.293 C32.855,28.075 32.343,29.159 32.343,30.546 C32.343,31.569 32.532,32.408 32.909,33.061 C33.286,33.715 33.922,34.313 34.818,34.859 C35.713,35.404 37.084,36.008 38.929,36.667 C42.026,37.771 44.158,38.957 45.323,40.222 C46.488,41.489 47.071,43.131 47.071,45.152" fill="#000000"/>
    <path d="M67.758,53.01 L67.758,38.687 C67.758,36.883 67.347,35.535 66.525,34.646 C65.703,33.758 64.417,33.313 62.667,33.313 C60.336,33.313 58.636,33.947 57.566,35.212 C56.495,36.479 55.96,38.553 55.96,41.434 L55.96,53.01 L52.606,53.01 L52.606,21.576 L55.96,21.576 L55.96,31.091 C55.96,32.236 55.905,33.186 55.798,33.939 L56,33.939 C56.66,32.876 57.599,32.038 58.818,31.424 C60.037,30.812 61.427,30.505 62.99,30.505 C65.697,30.505 67.727,31.149 69.081,32.434 C70.434,33.721 71.111,35.765 71.111,38.566 L71.111,53.01 L67.758,53.01" fill="#000000"/>
    <path d="M77.717,24.869 C77.717,24.101 77.905,23.539 78.283,23.182 C78.66,22.826 79.131,22.646 79.697,22.646 C80.235,22.646 80.7,22.828 81.091,23.192 C81.481,23.556 81.677,24.115 81.677,24.869 C81.677,25.624 81.481,26.186 81.091,26.556 C80.7,26.927 80.235,27.111 79.697,27.111 C79.131,27.111 78.66,26.927 78.283,26.556 C77.905,26.186 77.717,25.624 77.717,24.869 L77.717,24.869 Z M78,30.869 L81.354,30.869 L81.354,53.01 L78,53.01 L78,30.869 Z" fill="#000000"/>
    <path d="M97.818,53.414 C94.546,53.414 91.963,52.418 90.071,50.424 C88.178,48.432 87.232,45.664 87.232,42.121 C87.232,38.553 88.111,35.717 89.869,33.616 C91.626,31.515 93.986,30.465 96.95,30.465 C99.724,30.465 101.919,31.377 103.535,33.202 C105.151,35.028 105.96,37.434 105.96,40.424 L105.96,42.546 L90.707,42.546 C90.774,45.145 91.431,47.119 92.677,48.465 C93.922,49.812 95.677,50.485 97.939,50.485 C100.323,50.485 102.68,49.987 105.01,48.99 L105.01,51.98 C103.825,52.492 102.703,52.859 101.646,53.081 C100.589,53.303 99.313,53.414 97.818,53.414 L97.818,53.414 Z M96.909,33.273 C95.131,33.273 93.713,33.852 92.657,35.01 C91.599,36.169 90.976,37.771 90.788,39.818 L102.364,39.818 C102.364,37.704 101.892,36.085 100.949,34.96 C100.006,33.836 98.66,33.273 96.909,33.273 L96.909,33.273 Z" fill="#000000"/>
    <path d="M111.677,21.576 L115.03,21.576 L115.03,53.01 L111.677,53.01 L111.677,21.576 Z" fill="#000000"/>
    <path d="M137.212,50.04 L137.03,50.04 C135.481,52.29 133.164,53.414 130.081,53.414 C127.185,53.414 124.932,52.424 123.323,50.444 C121.713,48.465 120.909,45.65 120.909,42 C120.909,38.351 121.717,35.515 123.333,33.495 C124.95,31.475 127.198,30.465 130.081,30.465 C133.083,30.465 135.386,31.556 136.99,33.737 L137.252,33.737 L137.111,32.141 L137.03,30.586 L137.03,21.576 L140.384,21.576 L140.384,53.01 L137.657,53.01 L137.212,50.04 L137.212,50.04 Z M130.505,50.606 C132.794,50.606 134.454,49.984 135.485,48.737 C136.515,47.492 137.03,45.482 137.03,42.707 L137.03,42 C137.03,38.862 136.508,36.624 135.465,35.283 C134.421,33.943 132.754,33.273 130.465,33.273 C128.498,33.273 126.993,34.038 125.949,35.566 C124.905,37.095 124.384,39.252 124.384,42.04 C124.384,44.869 124.902,47.004 125.939,48.444 C126.976,49.886 128.498,50.606 130.505,50.606 L130.505,50.606 Z" fill="#000000"/>
    <path d="M161.778,46.97 C161.778,49.03 161.01,50.62 159.475,51.737 C157.939,52.856 155.784,53.414 153.01,53.414 C150.073,53.414 147.784,52.949 146.141,52.02 L146.141,48.909 C147.204,49.448 148.346,49.872 149.566,50.182 C150.784,50.492 151.96,50.646 153.091,50.646 C154.841,50.646 156.188,50.367 157.131,49.808 C158.073,49.25 158.546,48.398 158.546,47.252 C158.546,46.391 158.172,45.654 157.424,45.04 C156.677,44.428 155.218,43.705 153.051,42.869 C150.99,42.101 149.525,41.432 148.657,40.859 C147.788,40.287 147.141,39.636 146.717,38.909 C146.293,38.182 146.081,37.313 146.081,36.303 C146.081,34.499 146.814,33.075 148.283,32.03 C149.75,30.987 151.764,30.465 154.323,30.465 C156.707,30.465 159.037,30.949 161.313,31.919 L160.121,34.646 C157.899,33.731 155.885,33.273 154.081,33.273 C152.491,33.273 151.293,33.523 150.485,34.02 C149.677,34.519 149.273,35.206 149.273,36.081 C149.273,36.674 149.424,37.179 149.727,37.596 C150.03,38.014 150.518,38.412 151.192,38.788 C151.865,39.165 153.158,39.711 155.071,40.424 C157.697,41.381 159.471,42.343 160.394,43.313 C161.316,44.283 161.778,45.503 161.778,46.97" fill="#000000"/>
    <path d="M193.737,23.475 L200,23.475 L200,53.01 L193.737,53.01 L193.737,23.475 Z" fill="#FFFFFF"/>
    <path d="M234.242,38.202 C234.242,43.091 233.03,46.849 230.606,49.475 C228.182,52.101 224.707,53.414 220.182,53.414 C215.657,53.414 212.182,52.101 209.758,49.475 C207.333,46.849 206.121,43.078 206.121,38.162 C206.121,33.246 207.336,29.492 209.768,26.899 C212.198,24.307 215.683,23.01 220.222,23.01 C224.76,23.01 228.232,24.317 230.636,26.929 C233.04,29.543 234.242,33.301 234.242,38.202 L234.242,38.202 Z M212.687,38.202 C212.687,41.503 213.313,43.987 214.566,45.657 C215.818,47.327 217.689,48.162 220.182,48.162 C225.178,48.162 227.677,44.842 227.677,38.202 C227.677,31.549 225.192,28.222 220.222,28.222 C217.73,28.222 215.851,29.061 214.586,30.737 C213.319,32.414 212.687,34.903 212.687,38.202 L212.687,38.202 Z" fill="#FFFFFF"/>
  </g>
</svg>
